styles/6/Numix/64/places/brown-folder-saved-search.svg

<?xml version="1.0" encoding="UTF-8" standalone="no"?>
<!-- Created with Inkscape (http://www.inkscape.org/) -->

<svg
   xmlns:dc="http://purl.org/dc/elements/1.1/"
   xmlns:cc="http://creativecommons.org/ns#"
   xmlns:rdf="http://www.w3.org/1999/02/22-rdf-syntax-ns#"
   xmlns:svg="http://www.w3.org/2000/svg"
   xmlns="http://www.w3.org/2000/svg"
   xmlns:xlink="http://www.w3.org/1999/xlink"
   xmlns:sodipodi="http://sodipodi.sourceforge.net/DTD/sodipodi-0.dtd"
   xmlns:inkscape="http://www.inkscape.org/namespaces/inkscape"
   width="64"
   height="64"
   id="svg2"
   version="1.1"
   inkscape:version="0.91 r"
   sodipodi:docname="brown-folder-saved-search.svg"
   inkscape:export-filename="/media/Data/Main/Visuals/Icons/Numix/Desktop/repos/numix-wiki/Gjorgi/Numix-folders/48/New/folder-144.png"
   inkscape:export-xdpi="270"
   inkscape:export-ydpi="270">
  <defs
     id="defs4">
    <linearGradient
       inkscape:collect="always"
       id="linearGradient3958">
      <stop
         style="stop-color:#000000;stop-opacity:1;"
         offset="0"
         id="stop3960" />
      <stop
         style="stop-color:#000000;stop-opacity:0;"
         offset="1"
         id="stop3962" />
    </linearGradient>
    <radialGradient
       inkscape:collect="always"
       xlink:href="#linearGradient3958"
       id="radialGradient3964"
       cx="32.5"
       cy="56.5"
       fx="32.5"
       fy="56.5"
       r="33.5"
       gradientTransform="matrix(1,0,0,0.10447761,0,50.597015)"
       gradientUnits="userSpaceOnUse" />
  </defs>
  <sodipodi:namedview
     id="base"
     pagecolor="#ffffff"
     bordercolor="#666666"
     borderopacity="1.0"
     inkscape:pageopacity="0.0"
     inkscape:pageshadow="2"
     inkscape:zoom="17.140269"
     inkscape:cx="30.758406"
     inkscape:cy="31.307394"
     inkscape:document-units="px"
     inkscape:current-layer="layer1"
     showgrid="true"
     inkscape:window-width="1920"
     inkscape:window-height="1052"
     inkscape:window-x="0"
     inkscape:window-y="28"
     inkscape:window-maximized="1"
     showguides="true"
     inkscape:guide-bbox="true">
    <inkscape:grid
       type="xygrid"
       id="grid2985"
       empspacing="5"
       visible="true"
       enabled="true"
       snapvisiblegridlinesonly="true" />
  </sodipodi:namedview>
  <metadata
     id="metadata7">
    <rdf:RDF>
      <cc:Work
         rdf:about="">
        <dc:format>image/svg+xml</dc:format>
        <dc:type
           rdf:resource="http://purl.org/dc/dcmitype/StillImage" />
        <dc:title />
      </cc:Work>
    </rdf:RDF>
  </metadata>
  <g
     inkscape:label="Layer 1"
     inkscape:groupmode="layer"
     id="layer1"
     transform="translate(0,-988.3622)">
    <path
       sodipodi:type="arc"
       style="opacity:0.6;fill:url(#radialGradient3964);fill-opacity:1;stroke:none"
       id="path3956"
       sodipodi:cx="32.5"
       sodipodi:cy="56.5"
       sodipodi:rx="33.5"
       sodipodi:ry="3.5"
       d="M 66,56.5 C 66,58.432997 51.001539,60 32.5,60 13.998461,60 -1,58.432997 -1,56.5 -1,54.567003 13.998461,53 32.5,53 51.001539,53 66,54.567003 66,56.5 z"
       transform="matrix(1.1343284,0,0,1.1428571,-4.8656716,979.79077)" />
    <path
       sodipodi:nodetypes="ccccccccc"
       inkscape:connector-curvature="0"
       id="path3029"
       d="m 0,997.42103 0,42.82347 64,0 0,-21.4117 -3.047619,-18.353 L 37,1000.3622 l -3,-6 -30.952381,0 C 1.52381,994.3622 0,995.89161 0,997.42103 z"
       style="fill:#5d4037;fill-opacity:1;stroke:none" />
    <rect
       style="fill:#fffdf0;fill-opacity:1;stroke:none"
       id="rect3799"
       width="31.571428"
       height="11.882284"
       x="5"
       y="1002.3622" />
    <path
       style="fill:#000000;fill-opacity:1;stroke:none;opacity:0.03"
       d="M 3.0625,6 C 1.538691,6 0,7.53308 0,9.0625 l 0,2 C 0,9.53308 1.538691,8 3.0625,8 L 33,8 36,14 60.9375,14.125 64,32.46875 l 0,-2 L 60.9375,12.125 37,12 34,6 z"
       transform="translate(0,988.3622)"
       id="path3790"
       inkscape:connector-curvature="0"
       sodipodi:nodetypes="sscsccccccccs" />
    <path
       style="fill:#8d6e63;fill-opacity:1;stroke:none"
       d="m 64,1003.5387 0,42.8235 -64,0 0,-40 30,0 3,-6 27.952381,0.1176 c 1.523809,0 3.047619,1.5295 3.047619,3.0589 z"
       id="rect2987"
       inkscape:connector-curvature="0"
       sodipodi:nodetypes="cccccccc" />
    <path
       sodipodi:nodetypes="ccccc"
       id="path3794"
       d="m 0,1044.3622 0,2 64,0 0,-2 z"
       style="opacity:0.15;fill:#000000;fill-opacity:1;stroke:none"
       inkscape:connector-curvature="0" />
    <path
       style="fill:#000000;fill-opacity:1;stroke:none;opacity:0.03"
       d="m 33,12 -3,6 -30,0 0,2 31,0 3,-6 26.9375,0.125 c 1.523809,0 3.0625,1.5331 3.0625,3.0625 l 0,-2 C 64,13.6581 62.461309,12.125 60.9375,12.125 z"
       id="path3015"
       inkscape:connector-curvature="0"
       sodipodi:nodetypes="ccccccccscc"
       transform="translate(0,988.3622)" />
    <g
       id="g3874"
       style="opacity:1.0">
      <rect
         transform="matrix(0.70710678,0.70710678,-0.70710678,0.70710678,0,0)"
         ry="1.9999999"
         rx="2"
         y="706.08826"
         x="746.37506"
         height="16"
         width="4"
         id="rect3055"
         style="opacity:1;fill:#634b43;fill-opacity:1;stroke:none" />
      <path
         id="path3869"
         transform="translate(0,988.3622)"
         d="M 36 24 C 30.477153 24 26 28.477152 26 34 C 26 39.522848 30.477153 44 36 44 C 41.522847 44 46 39.522848 46 34 C 46 28.477152 41.522847 24 36 24 z M 36 27 C 39.865993 27 43 30.134007 43 34 C 43 37.865993 39.865993 41 36 41 C 32.134007 41 29 37.865993 29 34 C 29 30.134007 32.134007 27 36 27 z "
         style="opacity:1;fill:#634b43;fill-opacity:1;stroke:none" />
    </g>
  </g>
</svg>

<!-- Created with Inkscape (http://www.inkscape.org/) -->
<svg xmlns="http://www.w3.org/2000/svg" viewBox="0 0 64 64">
 <defs>
  <radialGradient id="radialGradient3964" cx="32.5" cy="56.5" r="33.5" gradientTransform="matrix(1,0,0,0.10447761,0,50.597015)" gradientUnits="userSpaceOnUse">
   <stop style="stop-color:#000;stop-opacity:1"/>
   <stop offset="1" style="stop-color:#000;stop-opacity:0"/>
  </radialGradient>
 </defs>
 <g transform="translate(0,-988.3622)">
  <path d="m 66 56.5 c 0 1.933 -14.998 3.5 -33.5 3.5 -18.502 0 -33.5 -1.567 -33.5 -3.5 0 -1.933 14.998 -3.5 33.5 -3.5 18.502 0 33.5 1.567 33.5 3.5 z" transform="matrix(1.1343284,0,0,1.1428571,-4.8656716,979.79077)" style="fill:url(#radialGradient3964);opacity:0.6;fill-opacity:1;stroke:none"/>
  <path d="m 0 997.42 0 42.823 64 0 0 -21.412 -3.048 -18.353 l -23.952 -0.118 l -3 -6 -30.952 0 c -1.524 0 -3.048 1.529 -3.048 3.059 z" style="fill:#5d4037;fill-opacity:1;stroke:none"/>
  <rect width="31.571" height="11.882" x="5" y="1002.36" style="fill:#fffdf0;fill-opacity:1;stroke:none"/>
  <path d="M 3.0625,6 C 1.538691,6 0,7.53308 0,9.0625 l 0,2 C 0,9.53308 1.538691,8 3.0625,8 L 33,8 36,14 60.9375,14.125 64,32.46875 l 0,-2 L 60.9375,12.125 37,12 34,6 z" transform="translate(0,988.3622)" style="fill:#000;opacity:0.03;fill-opacity:1;stroke:none"/>
  <path d="m 64 1003.54 0 42.824 -64 0 0 -40 30 0 3 -6 27.952 0.118 c 1.524 0 3.048 1.529 3.048 3.059 z" style="fill:#8d6e63;fill-opacity:1;stroke:none"/>
  <path d="m 0 1044.36 0 2 64 0 0 -2 z" style="fill:#000;opacity:0.15;fill-opacity:1;stroke:none"/>
  <path d="m 33 12 -3 6 -30 0 0 2 31 0 3 -6 26.938 0.125 c 1.524 0 3.063 1.533 3.063 3.063 l 0 -2 c 0 -1.529 -1.539 -3.063 -3.063 -3.063 z" transform="translate(0,988.3622)" style="fill:#000;opacity:0.03;fill-opacity:1;stroke:none"/>
  <g style="opacity:1">
   <rect transform="matrix(0.70710678,0.70710678,-0.70710678,0.70710678,0,0)" rx="2" y="706.09" x="746.38" height="16" width="4" style="fill:#634b43;opacity:1;fill-opacity:1;stroke:none"/>
   <path transform="translate(0,988.3622)" d="m 36 24 c -5.523 0 -10 4.477 -10 10 c 0 5.523 4.477 10 10 10 c 5.523 0 10 -4.477 10 -10 c 0 -5.523 -4.477 -10 -10 -10 z m 0 3 c 3.866 0 7 3.134 7 7 c 0 3.866 -3.134 7 -7 7 c -3.866 0 -7 -3.134 -7 -7 c 0 -3.866 3.134 -7 7 -7 z" style="fill:#634b43;opacity:1;fill-opacity:1;stroke:none"/>
  </g>
 </g>
</svg>
